!!!COM:	Bach, Johann Sebastian
!!!CDT:	1685/02/21/-1750/07/28/
!!!OTL@@DE:	Meinen Jesum la&szlig; ich nicht, weil
!!!SCT:	BWV 154/8
!!!PC#:	152
!!!AGN:	chorale
**kern	**kern	**kern	**kern
*ICvox	*ICvox	*ICvox	*ICvox
*Ibass	*Itenor	*Ialto	*Isoprn
*I"Bass	*I"Tenor	*I"Alto	*I"Soprano
*clefF4	*clefGv2	*clefG2	*clefG2
*k[f#c#]	*k[f#c#]	*k[f#c#]	*k[f#c#]
*D:	*D:	*D:	*D:
*M4/4	*M4/4	*M4/4	*M4/4
*met(c)	*met(c)	*met(c)	*met(c)
*MM100	*MM100	*MM100	*MM100
=1-	=1-	=1-	=1-
8DL	4d	8f#L	4a
8EJ	.	8gJ	.
8F#L	4d	4a	4a
8DJ	.	.	.
8GL	4d	4a	4b
8F#J	.	.	.
8GL	4e	4g	4b
8EJ	.	.	.
=2	=2	=2	=2
8AL	4e	8gL	4cc#
8GJ	.	8eJ	.
8F#L	4A	8aL	4cc#
8EJ	.	8gJ	.
2D;	2A;	2f#;	2dd;
=3	=3	=3	=3
8AAL	4c#	4a	4ee
8BBJ	.	.	.
8C#L	4c#	4a	4ee
8AAJ	.	.	.
8BBL	4c#	4a	4dd
8C#J	.	.	.
8DL	4B	8g#L	4dd
8BBJ	.	8f#J	.
=4	=4	=4	=4
8C#L	8BL	4e	4cc#
8DJ	8AJ	.	.
8EL	4A	4e	8bL
8C#J	.	.	16cc#L
.	.	.	16ddJJ
8DL	4A	4f#	2b
8BBJ	.	.	.
4E	4G#	4e	.
=5	=5	=5	=5
2AA;	2c#;	2e;	2a;
8DL	4d	8f#L	4a
8EJ	.	8gJ	.
8F#L	4d	4a	4a
8DJ	.	.	.
=6	=6	=6	=6
8GL	4d	4a	4b
8F#J	.	.	.
8EL	4e	4g	4b
8DJ	.	.	.
8C#L	8eL	8gL	4a
8AAJ	8c#J	8f#J	.
8BBL	8dL	8f#L	4g
8C#J	8AJ	8eJ	.
=7	=7	=7	=7
2D;	2A;	2d;	2f#;
8F#L	4A	4c#	4a
8EJ	.	.	.
8D#L	4B	[4f#	4a
8BBJ	.	.	.
=8	=8	=8	=8
8EL	4B	8f#L]	4g
8DnXJ	.	16eL	.
.	.	16dJJ	.
8C#L	4A	8eL	4g
8AAJ	.	8eJ	.
8DL	4A	8eL	4f#
8F#J	.	8dJ	.
8GL	4B	4d	8eL
8EJ	.	.	16f#L
.	.	.	16gJJ
=9	=9	=9	=9
8AL	4A	4d	2e
8GJ	.	.	.
8AL	4G	4c#	.
8AAJ	.	.	.
2D;	2F#;	2A;	2d;
=10	=10	=10	=10
8BBL	4B	4f#	4dd
8C#J	.	.	.
8DL	4B	4f#	4dd
8EJ	.	.	.
8F#L	4A	4f#	4cc#
8G#J	.	.	.
8AL	4A	4e	4cc#
8F#J	.	.	.
=11	=11	=11	=11
8D#L	4A	4f#	4b
8BBJ	.	.	.
4E	4G#	4e	4b
2AA;	2c#;	2e;	2a;
=12	=12	=12	=12
8F#L	4c#	4f#	4a
8EJ	.	.	.
8DL	4d	4f#	4a
8C#J	.	.	.
8BBL	8dL	8f#L	4g
8C#J	8AJ	8eJ	.
8DL	8AL	8eL	4f#
8BBJ	8BJ	8dJ	.
=13	=13	=13	=13
8GGL	8BL	8dL	4e
8EEJ	8GJ	16c#L	.
.	.	16BJJ	.
4AA	8EL	4c#	4e
.	8AJ	.	.
2D;	2F#;	2A;	2d;
==	==	==	==
*-	*-	*-	*-
!!!hum2abc: -Q ''
!!!title: @{PC#}. @{OTL@@DE}
!!!YOR1: 371 vierstimmige Choralges&auml;nge von Johann Sebastian Bach, 
!!!YOR2: 4th ed. by Alfred D&ouml;rffel (Leipzig: Breitkopf und H&auml;rtel, 
!!!YOR2: c.1875). 178 pp. Plate "V.A.10".  reprint: J.S. Bach, 371 Four-Part 
!!!YOR4: Chorales (New York: Associated Music Publishers, Inc., c.1940).
!!!SMS: B&H, 4th ed, Alfred D&ouml;rffel, c.1875, plate V.A.10
!!!EED:  Craig Stuart Sapp
!!!EEV:  2009/05/22
